X:1
T:What Is He Worth to Your Soul?
T:What Is He Worth to Your Soul?
T:W. B. Walbert & Adger McDavid Pace
T:James Rowe, 1922
T:Public Domain Courtesy of the Cyber Hymnal™
T:Public Domain Courtesy of the Cyber Hymnal™
C:W. B. Walbert & Adger McDavid Pace
Z:Public Domain
Z:Courtesy of the Cyber Hymnal™
%%score ( 1 2 ) ( 3 4 )
L:1/8
Q:1/4=135
M:3/4
K:G
V:1 treble 
V:2 treble 
V:3 bass 
V:4 bass 
V:1
 [GB]3 [G^A] [GB]2 | [Gd]2 [Ge]2 [Gd]2 | [GB]2 [EG]2 [FA]2 | G6 | [GB]3 [G^A] [GB]2 | %5
w: 1.~Je- sus the|Lord laid His|glo- ry a-|side,|Sin- ners to|
w: 2.~All that was|His for the|sin- ner He|gave,|Point- ed the|
w: 3.~All that He|saves He will|keep till the|end,|Un- der His|
w: 4.~All who will|trust Him in|sun- shine and|gloam,|Shall, when they|
 G2 [FA]2 [GB]2 | [FA]6- | [FA]4 z2 | [GB]3 [G^A] [GB]2 | [Gd]2 [Ge]2 [Gd]2 | [GB]2 G2 [FA]2 | %11
w: save and make|whole,||Free- ly He|died our trans-|gres- sions to|
w: path to the|goal;||Sin would de-|prave, but the|Sav- ior would|
w: bless- èd con-|trol;||Men may de-|pend on this|won- der- ful|
w: reach the bright|goal,||Ceas- ing to|roam, be for-|ev- er at|
 [EG]6 | [EG]2 [EG]2 [Gc]2 | [GB]3 G [FA]2 | [DG]6- | [DG]4 z2 ||"^Refrain" [GB]2 [G^A]2 [GB]2 | %17
w: hide,|What is He|worth to your|soul?|||
w: save,|What is He|worth to your|soul?||What is He|
w: friend,|What is He|worth to your|soul?|||
w: home,|What is He|worth to your|soul?|||
 d6- | [Gd]4 z2 | [Ge]2 [Gd]2 [GB]2 | G6- | [DG]4 z2 | [GB]3 [G^A] [GB]2 | G2 [FA]2 [GB]2 | A6- | %25
w: ||||||||
w: worth,||what is He|worth,||What is He|worth to your|soul?|
w: ||||||||
w: ||||||||
 [FA]4 [DG]2 | [GB]2 [G^A]2 [GB]2 | d6- | [Gd]4 [Gd]2 | [Ge]2 [Gd]2 [DB]2 | G6- | [EG]4 z2 | %32
w: |||||||
w: * He|died on the|tree,|* for|you and for|me,||
w: |||||||
w: |||||||
 [EG]2 [EG]2 [Gc]2 | [GB]3 G [FA]2 | G6- | [DG]6 |] %36
w: ||||
w: What is He|worth to your|soul?||
w: ||||
w: ||||
V:2
 x6 | x6 | x6 | G6 | x6 | G2 x4 | x6 | x6 | x6 | x6 | x2 G2 x2 | x6 | x6 | x3 G x2 | x6 | x6 || %16
 x6 | G4 F2 | x6 | x6 | D4 E2 | x6 | x6 | G2 x4 | F4 G2 | x6 | x6 | G4 F2 | x6 | x6 | E4 =F2 | x6 | %32
 x6 | x3 G x2 | D4 E2 | x6 |] %36
V:3
 [G,D]3 [G,^C] [G,D]2 | [G,B,]2 [G,C]2 [G,B,]2 | [D,D]2 [E,B,]2 [D,C]2 | [G,B,]6 | %4
w: ~ ~ ~|~ ~ ~|~ ~ ~|~|
 [G,D]3 [G,^C] [G,D]2 | [B,D]2 [A,D]2 [G,D]2 | [D,D]6- | [D,D]4 z2 | [G,D]3 [G,^C] [G,D]2 | %9
w: ~ ~ ~|~ ~ ~|~||~ ~ ~|
 [G,B,]2 [G,C]2 [G,B,]2 | [D,D]2 [D,B,]2 [^D,C]2 | [E,B,]6 | [C,C]2 [C,D]2 [C,E]2 | %13
w: ~ ~ ~|~ ~ ~|~|~ ~ ~|
 [D,D]3 [D,B,] [D,C]2 | [G,,G,B,]6- | [G,,G,B,]4 z2 || [G,D]2 [G,^C]2 [G,D]2 | [G,B,]4 [D,A,]2 | %18
w: ~ ~ ~|~||~ ~ ~|~ to|
 [G,B,]4 z2 | [G,C]2 [G,B,]2 [G,D]2 | [G,B,]4 [C,C]2 | [G,,B,]4 z2 | [G,D]3 [G,^C] [G,D]2 | %23
w: you,|~ ~ ~|~ to|you,|~ ~ ~|
 [B,D]2 [A,D]2 [G,D]2 | [D,D]4 [E,^C]2 | [D,C]4 [G,B,]2 | [G,D]2 [G,^C]2 [G,D]2 | [G,B,]4 [D,A,]2 | %28
w: ~ ~ ~|~ ~|~ ~|~ ~ ~|cru- el|
 [G,B,]4 [G,B,]2 | [G,C]2 [G,B,]2 [=F,D]2 | [E,B,]4 [D,B,]2 | [C,C]4 z2 | [C,C]2 [C,D]2 [C,E]2 | %33
w: tree, ~|~ ~ ~|~ for|me,||
 [D,D]3 [D,B,] [D,C]2 | B,4 ^A,2 | [G,,G,B,]6 |] %36
w: |||
V:4
 x6 | x6 | x6 | x6 | x6 | x6 | x6 | x6 | x6 | x6 | x6 | x6 | x6 | x6 | x6 | x6 || x6 | x6 | x6 | %19
 x6 | x6 | x6 | x6 | x6 | x6 | x6 | x6 | x6 | x6 | x6 | x6 | x6 | x6 | x6 | [G,,G,]6- | x6 |] %36

